svgs/decisions.svg

<svg xmlns="http://www.w3.org/2000/svg" viewBox="0 0 192 192"><path d="M88.662 132.958c-13.006 0-27.112 17.563-41.911 17.563-14.799 0-30.251-15.013-30.251-15.013m86.838-2.55c13.006 0 27.112 17.563 41.911 17.563 14.799 0 30.251-14.89 30.251-14.89" fill="none" stroke="#000" stroke-width="8" stroke-linecap="round" stroke-linejoin="round"/><path d="M96 125.431c-1.549 0-3.06.495-4.313 1.414a7.4 7.4 0 0 0-2.666 3.702 7.462 7.462 0 0 0 0 4.575 7.4 7.4 0 0 0 2.666 3.702A7.294 7.294 0 0 0 96 140.238c1.549 0 3.06-.495 4.313-1.414a7.4 7.4 0 0 0 2.666-3.702 7.462 7.462 0 0 0 0-4.575 7.4 7.4 0 0 0-2.666-3.702A7.294 7.294 0 0 0 96 125.431Zm0 0v-19.126M25.225 77.142l35.347-35.661M173.625 41.481l-35.347 35.661-15.615-15.753m-49.249 44.916h45.172L96 59.291ZM25.225 41.481l35.347 35.661M96 140.238v2.921" fill="none" stroke="#000" stroke-width="8" stroke-linecap="round" stroke-linejoin="round"/></svg>

<svg
    xmlns="http://www.w3.org/2000/svg"
    viewBox="0 0 192 192"
    id="vector">
    <path
        id="path"
        d="M 88.662 132.958 C 75.656 132.958 61.55 150.521 46.751 150.521 C 31.952 150.521 16.5 135.508 16.5 135.508 M 103.338 132.958 C 116.344 132.958 130.45 150.521 145.249 150.521 C 160.048 150.521 175.5 135.631 175.5 135.631"
        fill="none"
        stroke="#000000"
        stroke-width="8"
        stroke-linecap="round"
        stroke-linejoin="round"/>
    <path
        id="path_1"
        d="M 96 125.431 C 94.451 125.431 92.94 125.926 91.687 126.845 C 90.433 127.764 89.5 129.06 89.021 130.547 C 88.542 132.033 88.542 133.636 89.021 135.122 C 89.5 136.609 90.433 137.905 91.687 138.824 C 92.94 139.743 94.451 140.238 96 140.238 C 97.549 140.238 99.06 139.743 100.313 138.824 C 101.567 137.905 102.5 136.609 102.979 135.122 C 103.458 133.636 103.458 132.033 102.979 130.547 C 102.5 129.06 101.567 127.764 100.313 126.845 C 99.06 125.926 97.549 125.431 96 125.431 Z M 96 125.431 L 96 106.305 M 25.225 77.142 L 60.572 41.481"
        fill="none"
        stroke="#000000"
        stroke-width="8"
        stroke-linecap="round"
        stroke-linejoin="round"/>
    <path
        id="path_2"
        d="M 173.625 41.481 L 138.278 77.142 L 122.663 61.389 M 73.414 106.305 L 118.586 106.305 L 96 59.291 Z"
        fill="none"
        stroke="#000000"
        stroke-width="8"
        stroke-linecap="round"
        stroke-linejoin="round"/>
    <path
        id="path_3"
        d="M 25.225 41.481 L 60.572 77.142 M 96 140.238 L 96 143.159"
        fill="none"
        stroke="#000000"
        stroke-width="8"
        stroke-linecap="round"
        stroke-linejoin="round"/>
</svg>
